X:1
T:Farandole (L'Arlésienne)
C:Georges Bizet
M:6/8
L:1/8
Q:3/8=160
K:D
D | D3 D2E | F3 D2A | A3 A2B | c3 A3 | d3 d2c | B3 A3 | F3 F2G | A6 | d3 d2c | B3 A3 | F3 F2G | A6 |]
